X:16
T:Come Under My Plaidie
M:6/8
R:jig
C:trad. via Ruthie Dornfeld
K:ADor
g |: d2B BAB | d2B B2 g | d2B BAB | =G2E E2 g| \
d2B BAB | d2B B2 =G | ABc BcA | G2E E3 :: | \
dcd ede| fdB AFA | dcd ede | fdB Bde | \
fed eAB | cAB cBA | G2 E DE | C2A, A,3 :|
